Newaita-dark/actions/16/object-group.svg

<svg height="16" viewBox="0 0 16 16" width="16" xmlns="http://www.w3.org/2000/svg"><g fill="#e0e0e0"><path d="m4.300781 8.726562c-.183593 0-.332031.144532-.332031.328126v2.648437c0 .183594.148438.328125.332031.328125h2.644531c.183594 0 .332032-.144531.332032-.328125v-2.648437c0-.183594-.148438-.328126-.332032-.328126zm.527344.660157h1.589844c.109375 0 .195312.089843.195312.199219v1.585937c0 .109375-.085937.199219-.195312.199219h-1.589844c-.109375 0-.199219-.089844-.199219-.199219v-1.585937c0-.109376.089844-.199219.199219-.199219zm0 0"/><path d="m2.644531 1.449219c-.730469 0-1.320312.589843-1.320312 1.320312v2.648438h1.320312v-1.984375c0-.367188.296875-.664063.664063-.664063h1.984375v-1.320312zm7.941407 0v1.320312h1.984374c.363282 0 .660157.296875.660157.664063v1.984375h1.324219v-2.648438c0-.730469-.589844-1.320312-1.324219-1.320312zm-9.261719 9.261719v2.644531c0 .734375.589843 1.324219 1.320312 1.324219h2.648438v-1.324219h-1.984375c-.367188 0-.664063-.296875-.664063-.660157v-1.984374zm11.90625 0v1.984374c0 .363282-.296875.660157-.660157.660157h-1.984374v1.324219h2.644531c.734375 0 1.324219-.589844 1.324219-1.324219v-2.644531zm0 0"/><path d="m5.625 4.082031c-.128906 0-.25.074219-.308594.191407l-1.324218 2.644531c-.050782.105469-.046876.230469.015624.332031s.171876.164062.292969.164062h2.644531c.121094 0 .230469-.0625.292969-.164062s.066407-.226562.015625-.332031l-1.324218-2.644531c-.058594-.117188-.175782-.191407-.304688-.191407zm-.003906 1.109375.769531 1.535156h-1.535156zm0 0"/><path d="m10.253906 4.09375c-.917968 0-1.652344.738281-1.652344 1.652344 0 .917968.734376 1.65625 1.652344 1.65625.914063 0 1.652344-.738282 1.652344-1.65625 0-.914063-.738281-1.652344-1.652344-1.652344zm0 .660156c.550782 0 .992188.445313.992188.992188 0 .550781-.441406.992187-.992188.992187-.550781 0-.992187-.441406-.992187-.992187 0-.546875.441406-.992188.992187-.992188zm0 0"/><path d="m8.929688 8.066406c-.183594 0-.328126.144532-.328126.328125v3.308594c0 .183594.144532.328125.328126.328125h2.648437c.183594 0 .328125-.144531.328125-.328125v-3.308594c0-.183593-.144531-.328125-.328125-.328125zm.53125.660156h1.585937c.109375 0 .199219.089844.199219.199219v2.246094c0 .109375-.089844.199219-.199219.199219h-1.585937c-.109376 0-.199219-.089844-.199219-.199219v-2.246094c0-.109375.089843-.199219.199219-.199219zm0 0"/></g></svg>

<svg xmlns="http://www.w3.org/2000/svg" xmlns:xlink="http://www.w3.org/1999/xlink" width="16px" height="16px" viewBox="0 0 16 16" version="1.1">
<g id="surface1">
     <defs>
  <style id="current-color-scheme" type="text/css">
   .ColorScheme-Text { color:#eeeeee; } .ColorScheme-Highlight { color:#424242; }
  </style>
 </defs>
<path style="fill:currentColor" class="ColorScheme-Text" d="M 4.300781 8.726562 C 4.117188 8.726562 3.96875 8.871094 3.96875 9.054688 L 3.96875 11.703125 C 3.96875 11.886719 4.117188 12.03125 4.300781 12.03125 L 6.945312 12.03125 C 7.128906 12.03125 7.277344 11.886719 7.277344 11.703125 L 7.277344 9.054688 C 7.277344 8.871094 7.128906 8.726562 6.945312 8.726562 Z M 4.828125 9.386719 L 6.417969 9.386719 C 6.527344 9.386719 6.613281 9.476562 6.613281 9.585938 L 6.613281 11.171875 C 6.613281 11.28125 6.527344 11.371094 6.417969 11.371094 L 4.828125 11.371094 C 4.71875 11.371094 4.628906 11.28125 4.628906 11.171875 L 4.628906 9.585938 C 4.628906 9.476562 4.71875 9.386719 4.828125 9.386719 Z M 4.828125 9.386719 "/>
     <defs>
  <style id="current-color-scheme" type="text/css">
   .ColorScheme-Text { color:#eeeeee; } .ColorScheme-Highlight { color:#424242; }
  </style>
 </defs>
<path style="fill:currentColor" class="ColorScheme-Text" d="M 2.644531 1.449219 C 1.914062 1.449219 1.324219 2.039062 1.324219 2.769531 L 1.324219 5.417969 L 2.644531 5.417969 L 2.644531 3.433594 C 2.644531 3.066406 2.941406 2.769531 3.308594 2.769531 L 5.292969 2.769531 L 5.292969 1.449219 Z M 10.585938 1.449219 L 10.585938 2.769531 L 12.570312 2.769531 C 12.933594 2.769531 13.230469 3.066406 13.230469 3.433594 L 13.230469 5.417969 L 14.554688 5.417969 L 14.554688 2.769531 C 14.554688 2.039062 13.964844 1.449219 13.230469 1.449219 Z M 1.324219 10.710938 L 1.324219 13.355469 C 1.324219 14.089844 1.914062 14.679688 2.644531 14.679688 L 5.292969 14.679688 L 5.292969 13.355469 L 3.308594 13.355469 C 2.941406 13.355469 2.644531 13.058594 2.644531 12.695312 L 2.644531 10.710938 Z M 13.230469 10.710938 L 13.230469 12.695312 C 13.230469 13.058594 12.933594 13.355469 12.570312 13.355469 L 10.585938 13.355469 L 10.585938 14.679688 L 13.230469 14.679688 C 13.964844 14.679688 14.554688 14.089844 14.554688 13.355469 L 14.554688 10.710938 Z M 13.230469 10.710938 "/>
     <defs>
  <style id="current-color-scheme" type="text/css">
   .ColorScheme-Text { color:#eeeeee; } .ColorScheme-Highlight { color:#424242; }
  </style>
 </defs>
<path style="fill:currentColor" class="ColorScheme-Text" d="M 5.625 4.082031 C 5.496094 4.082031 5.375 4.15625 5.316406 4.273438 L 3.992188 6.917969 C 3.941406 7.023438 3.945312 7.148438 4.007812 7.25 C 4.070312 7.351562 4.179688 7.414062 4.300781 7.414062 L 6.945312 7.414062 C 7.066406 7.414062 7.175781 7.351562 7.238281 7.25 C 7.300781 7.148438 7.304688 7.023438 7.253906 6.917969 L 5.929688 4.273438 C 5.871094 4.15625 5.753906 4.082031 5.625 4.082031 Z M 5.621094 5.191406 L 6.390625 6.726562 L 4.855469 6.726562 Z M 5.621094 5.191406 "/>
     <defs>
  <style id="current-color-scheme" type="text/css">
   .ColorScheme-Text { color:#eeeeee; } .ColorScheme-Highlight { color:#424242; }
  </style>
 </defs>
<path style="fill:currentColor" class="ColorScheme-Text" d="M 10.253906 4.09375 C 9.335938 4.09375 8.601562 4.832031 8.601562 5.746094 C 8.601562 6.664062 9.335938 7.402344 10.253906 7.402344 C 11.167969 7.402344 11.90625 6.664062 11.90625 5.746094 C 11.90625 4.832031 11.167969 4.09375 10.253906 4.09375 Z M 10.253906 4.753906 C 10.804688 4.753906 11.246094 5.199219 11.246094 5.746094 C 11.246094 6.296875 10.804688 6.738281 10.253906 6.738281 C 9.703125 6.738281 9.261719 6.296875 9.261719 5.746094 C 9.261719 5.199219 9.703125 4.753906 10.253906 4.753906 Z M 10.253906 4.753906 "/>
     <defs>
  <style id="current-color-scheme" type="text/css">
   .ColorScheme-Text { color:#eeeeee; } .ColorScheme-Highlight { color:#424242; }
  </style>
 </defs>
<path style="fill:currentColor" class="ColorScheme-Text" d="M 8.929688 8.066406 C 8.746094 8.066406 8.601562 8.210938 8.601562 8.394531 L 8.601562 11.703125 C 8.601562 11.886719 8.746094 12.03125 8.929688 12.03125 L 11.578125 12.03125 C 11.761719 12.03125 11.90625 11.886719 11.90625 11.703125 L 11.90625 8.394531 C 11.90625 8.210938 11.761719 8.066406 11.578125 8.066406 Z M 9.460938 8.726562 L 11.046875 8.726562 C 11.15625 8.726562 11.246094 8.816406 11.246094 8.925781 L 11.246094 11.171875 C 11.246094 11.28125 11.15625 11.371094 11.046875 11.371094 L 9.460938 11.371094 C 9.351562 11.371094 9.261719 11.28125 9.261719 11.171875 L 9.261719 8.925781 C 9.261719 8.816406 9.351562 8.726562 9.460938 8.726562 Z M 9.460938 8.726562 "/>
</g>
</svg>
